Adwaita++-Light/panel/22/bitwarden-tray.svg

<svg height="22" width="22" xmlns="http://www.w3.org/2000/svg">
  <path d="m11 3c-6.3402302.0002075-6.5027795.0034194-6.6679688.0996094-.3506689.2042777-.3320312-.0478703-.3320312 4.7148437 0 4.8330939-.0056654 4.7365489.3769531 5.6738279.4402003 1.07819 1.1485707 1.988275 2.3125 2.978516.9766088.830875 2.1342964 1.583963 3.4257809 2.222656.436925.216078.662887.314118.884766.310547.221879.0035.447839-.094465.884766-.310547 1.291484-.638693 2.449171-1.391781 3.425781-2.222656 1.163929-.990241 1.8723-1.900326 2.3125-2.978516.38268-.93728.376953-.840734.376953-5.6738279 0-4.7627177.018633-4.510566-.332031-4.7148437-.165189-.096206-.327738-.0994024-6.667969-.0996094zm0 2c2.808426.0000917 4.08168.0030098 4.978516.0117188.010543.6150452.021484 1.1008096.021484 2.8027343 0 2.4174729-.004896 3.6212849-.041016 4.1660159-.03608.544731.01146.264652-.1875.751953-.305374.74796-.748108 1.353569-1.755859 2.210937-.834479.709957-1.857771 1.378322-3.015625 1.951172z" fill="#444"/>
</svg>

<svg xmlns="http://www.w3.org/2000/svg" width="22" height="22" version="1.1">
 <defs>
  <style id="current-color-scheme" type="text/css">
   .ColorScheme-Text { color:#444444; } .ColorScheme-Highlight { color:#4285f4; }
  </style>
 </defs>
 <path style="fill:currentColor" class="ColorScheme-Text" d="M 11 3 C 4.6597698 3.0002075 4.4972205 3.0034194 4.3320312 3.0996094 C 3.9813623 3.3038871 4 3.0517391 4 7.8144531 C 4 12.647547 3.9943346 12.551002 4.3769531 13.488281 C 4.8171534 14.566471 5.5255238 15.476556 6.6894531 16.466797 C 7.6660619 17.297672 8.8237495 18.05076 10.115234 18.689453 C 10.552159 18.905531 10.778121 19.003571 11 19 C 11.221879 19.0035 11.447839 18.905535 11.884766 18.689453 C 13.17625 18.05076 14.333937 17.297672 15.310547 16.466797 C 16.474476 15.476556 17.182847 14.566471 17.623047 13.488281 C 18.005727 12.551001 18 12.647547 18 7.8144531 C 18 3.0517354 18.018633 3.3038871 17.667969 3.0996094 C 17.50278 3.0034034 17.340231 3.000207 11 3 z M 11 5 C 13.808426 5.0000917 15.08168 5.0030098 15.978516 5.0117188 C 15.989059 5.626764 16 6.1125284 16 7.8144531 C 16 10.231926 15.995104 11.435738 15.958984 11.980469 C 15.922904 12.5252 15.970444 12.245121 15.771484 12.732422 C 15.46611 13.480382 15.023376 14.085991 14.015625 14.943359 C 13.181146 15.653316 12.157854 16.321681 11 16.894531 L 11 5 z"/>
</svg>
